app/images/icon-nav-wallet-hover.svg

<svg height="42" viewBox="0 0 36 42" width="36" xmlns="http://www.w3.org/2000/svg"><g fill="none" fill-rule="evenodd" stroke-linecap="square" stroke-width="1.19"><path d="m24.0839844 15.6296447h-13.4543397c-.90037869 0-1.6296447.729266-1.6296447 1.6296447 0 .9003788.72926601 1.6296448 1.6296447 1.6296448 8.9695598 0 13.4543397-.090745 13.4543397-.272235 0-.9049398 0-1.9006247 0-2.9870545z" stroke="#2c96ff"/><g fill="#2c96ff"><path d="m26.926092 18.8889342h-16.2964473c-.90037869 0-1.6296447-.729266-1.6296447-1.6296448v12.2223355c0 1.3501606 1.0943064 2.4444671 2.4444671 2.4444671h15.4816249z" stroke="#2c96ff"/><circle cx="22.037158" cy="25.407513" r="1.629645" stroke="#fafafa"/></g></g></svg>

<?xml version="1.0" encoding="UTF-8"?>
<svg width="36px" height="42px" viewBox="0 0 36 42" version="1.1" xmlns="http://www.w3.org/2000/svg" xmlns:xlink="http://www.w3.org/1999/xlink">
    <!-- Generator: Sketch 47.1 (45422) - http://www.bohemiancoding.com/sketch -->
    <title>icon-nav-wallet-hover</title>
    <desc>Created with Sketch.</desc>
    <defs></defs>
    <g id="Symbols" stroke="none" stroke-width="1" fill="none" fill-rule="evenodd" stroke-linecap="square">
        <g id="browser-macOS-40a-profile-verified-d18" transform="translate(-260.000000, -46.000000)" stroke-width="1.19">
            <g id="navbar-w352px-top0" transform="translate(58.000000, 34.000000)">
                <g id="wallet:hover" transform="translate(176.000000, 0.000000)">
                    <g id="wallet" transform="translate(26.000000, 12.000000)">
                        <path d="M24.0839844,15.6296447 L10.6296447,15.6296447 C9.72926601,15.6296447 9,16.3589107 9,17.2592894 C9,18.1596682 9.72926601,18.8889342 10.6296447,18.8889342 C19.5992045,18.8889342 24.0839844,18.7981892 24.0839844,18.6166992 C24.0839844,17.7117594 24.0839844,16.7160745 24.0839844,15.6296447 Z" id="Shape" stroke="#2C96FF"></path>
                        <path d="M26.926092,18.8889342 L10.6296447,18.8889342 C9.72926601,18.8889342 9,18.1596682 9,17.2592894 L9,29.4816249 C9,30.8317855 10.0943064,31.926092 11.4444671,31.926092 L26.926092,31.926092 L26.926092,18.8889342 Z" id="Shape" stroke="#2C96FF" fill="#2C96FF"></path>
                        <circle id="Oval" stroke="#FAFAFA" fill="#2C96FF" cx="22.0371578" cy="25.4075131" r="1.62964472"></circle>
                    </g>
                </g>
            </g>
        </g>
    </g>
</svg>
